X: 5837
T: Calles De Medellin
R: reel
M: 4/4
K: Emajor
|:egbe gbeg|fefg feag|egbe gbeg|baag gecB|
egbe gbeg|fefg aecB|cAAe ddBf|fefg eeef:|
|:gfe(f f)BBa|agf(g g)ffb|gfe(f f)BBa|agfe deef|
gfe(f f)BBa|agf(g g)bge|1 cec(B B)bge|fefg eeef:|2 cBAc Bege|fefg eeef||

